app/dist/common/images/mettler-toledo-international.svg

<svg height="18" width="18" xmlns="http://www.w3.org/2000/svg"><path d="m0 0h18v18h-18z" fill="#244ba6"/><g fill="#fff"><path d="m11 5h4v1.5h-1.25v6.5h-1.5v-6.5h-1.25z"/><path d="m7.76 5-1.302 5-1.111-5h-2.347v8h1.5v-5.87l1.3 5.87h1.4l1.3-5.87v5.87h1.5v-8z"/></g></svg>

<!-- by TradingView --><svg width="18" height="18" xmlns="http://www.w3.org/2000/svg"><path fill="#244BA6" d="M0 0h18v18H0z"/><path d="M11 5h4v1.5h-1.25V13h-1.5V6.5H11V5z" fill="#fff"/><path d="M7.76 5l-1.302 5-1.111-5H3v8h1.5V7.13L5.8 13h1.4l1.3-5.87V13H10V5H7.76z" fill="#fff"/></svg>
